packages/core/src/svgs/sonne.svg

<svg width="24" height="24" viewBox="0 0 24 24" fill="none" xmlns="http://www.w3.org/2000/svg">
<g clip-path="url(#clip0_31_19012)">
<path d="M0 0H24V24H0V0Z" fill="#FE684F"/>
<path d="M11.9999 5.14307C12.2357 5.14307 12.4285 5.36164 12.4285 5.63164V6.16735C12.4285 6.43735 12.2357 6.65592 11.9999 6.65592C11.7642 6.65592 11.5714 6.44164 11.5714 6.16735V5.63164C11.5714 5.36164 11.7642 5.14307 11.9999 5.14307ZM16.6714 13.2859H6.89995C6.93852 13.5816 7.00281 13.8688 7.08852 14.1431H14.9999L15.9857 15.2188C16.3481 14.6301 16.5817 13.9714 16.6714 13.2859ZM15.5228 15.8574H5.45138C5.04423 15.8574 4.71423 15.4716 4.71423 15.0002H14.6914L15.5357 15.8445L15.5228 15.8574ZM16.7099 12.4288H6.85709C6.89138 11.6145 7.12709 10.8516 7.50852 10.1831L8.70852 11.5716H16.5942C16.6585 11.8502 16.6971 12.1374 16.7099 12.4288ZM16.3242 10.7145C15.9912 9.92951 15.4601 9.24437 14.783 8.72605C14.1059 8.20773 13.3059 7.87396 12.4611 7.75735C11.6164 7.64075 10.7559 7.74531 9.96368 8.06081C9.17147 8.37631 8.47466 8.89196 7.94138 9.55735L9.01281 10.7145H16.3285H16.3242ZM5.99995 16.7145C5.99995 17.1859 6.3128 17.5716 6.69423 17.5716H17.3057C17.6914 17.5716 17.9999 17.1859 17.9999 16.7145H5.99995ZM16.8342 15.8574H18.5657C18.9471 15.8574 19.2557 15.4716 19.2557 15.0002H17.1771C17.0785 15.3002 16.9628 15.5831 16.8342 15.8574ZM5.19852 12.0002C4.9328 12.0002 4.71423 12.1931 4.71423 12.4288C4.71423 12.6645 4.92852 12.8574 5.19852 12.8574H5.72995C5.99566 12.8574 6.21423 12.6645 6.21423 12.4288C6.21423 12.1931 5.99995 12.0002 5.72995 12.0002H5.19852ZM6.36852 8.67021C6.25709 8.60671 6.12503 8.58999 6.0013 8.62374C5.87757 8.65748 5.77228 8.73893 5.70852 8.85021C5.57138 9.08592 5.6528 9.38592 5.87995 9.51878L6.3428 9.78878C6.57423 9.92164 6.86995 9.8445 7.0028 9.60878C7.13995 9.37307 7.05852 9.07307 6.82709 8.94021L6.36852 8.67021ZM8.37423 6.12021C8.48566 6.05671 8.61772 6.03999 8.74145 6.07374C8.86518 6.10748 8.97048 6.18893 9.03423 6.30021L9.29995 6.75878C9.43281 6.9945 9.35566 7.2945 9.12423 7.43164C8.88852 7.5645 8.5928 7.48735 8.45995 7.25164L8.19423 6.78878C8.13032 6.67605 8.11337 6.54269 8.14706 6.41756C8.18075 6.29244 8.26236 6.18561 8.37423 6.12021ZM18.8014 12.0002C19.0671 12.0002 19.2857 12.1931 19.2857 12.4288C19.2857 12.6645 19.0714 12.8574 18.8014 12.8574H18.2699C18.0042 12.8574 17.7857 12.6645 17.7857 12.4288C17.7857 12.1931 17.9999 12.0002 18.2699 12.0002H18.8014ZM18.2957 8.85021C18.1585 8.61449 17.8628 8.53735 17.6314 8.67021L17.1728 8.94021C17.0617 9.00632 16.981 9.11346 16.9481 9.23852C16.9152 9.36359 16.9328 9.49657 16.9971 9.60878C17.1257 9.8445 17.4257 9.92164 17.6571 9.78878L18.1157 9.51878C18.3471 9.38592 18.4285 9.08592 18.2914 8.85021H18.2957ZM14.9657 6.30021C15.0942 6.06449 15.3942 5.98307 15.6257 6.12021C15.8571 6.25307 15.9385 6.55307 15.8057 6.78878L15.5399 7.25164C15.4071 7.48735 15.1114 7.5645 14.8757 7.43164C14.7634 7.3655 14.6818 7.25758 14.6489 7.13148C14.616 7.00539 14.6343 6.87138 14.6999 6.75878L14.9657 6.30021Z" fill="white"/>
</g>
<defs>
<clipPath id="clip0_31_19012">
<rect width="24" height="24" fill="white"/>
</clipPath>
</defs>
</svg>

<svg xmlns="http://www.w3.org/2000/svg" width="24" height="24" fill="none" viewBox="0 0 24 24"><g clip-path="url(#a)"><path fill="#FE684F" d="M0 0h24v24H0z"/><path fill="#fff" d="M12 5.143c.236 0 .428.219.428.489v.535c0 .27-.192.489-.428.489s-.429-.214-.429-.489v-.535c0-.27.193-.489.429-.489m4.671 8.143H6.9q.06.445.189.857h7.91l.987 1.076a4.9 4.9 0 0 0 .685-1.933m-1.148 2.571H5.45c-.407 0-.737-.385-.737-.857h9.977l.845.845zm1.187-3.428H6.857c.034-.815.27-1.577.652-2.246l1.2 1.389h7.885q.096.418.116.857m-.386-1.715a4.928 4.928 0 0 0-8.383-1.157l1.072 1.157h7.315zM6 16.715c0 .472.313.858.694.858h10.612c.385 0 .694-.386.694-.857zm10.834-.857h1.732c.381 0 .69-.385.69-.857h-2.079q-.149.448-.343.857M5.2 12c-.266 0-.485.193-.485.429s.215.428.485.428h.53c.267 0 .485-.192.485-.428S6 12 5.73 12zm1.17-3.33a.484.484 0 0 0-.66.18.49.49 0 0 0 .171.669l.463.27a.48.48 0 0 0 .66-.18.49.49 0 0 0-.176-.669zm2.005-2.55a.484.484 0 0 1 .66.18l.266.459a.5.5 0 0 1-.176.673.484.484 0 0 1-.664-.18l-.266-.463a.493.493 0 0 1 .18-.669M18.801 12c.266 0 .485.193.485.429s-.215.428-.485.428h-.531c-.266 0-.484-.192-.484-.428S18 12 18.27 12zm-.505-3.15a.486.486 0 0 0-.665-.18l-.458.27a.493.493 0 0 0-.176.669.48.48 0 0 0 .66.18l.459-.27a.49.49 0 0 0 .175-.669zm-3.33-2.55a.476.476 0 0 1 .66-.18.493.493 0 0 1 .18.669l-.266.463a.484.484 0 0 1-.891-.12.5.5 0 0 1 .05-.373z"/></g><defs><clipPath id="a"><path fill="#fff" d="M0 0h24v24H0z"/></clipPath></defs></svg>
